Adwaita++-Light/panel/16/pcloud-sync.svg

<svg height="16" width="16" xmlns="http://www.w3.org/2000/svg">
  <g fill="#444">
    <path d="m8 2a5 5 0 0 0 -4.6035156 3.0488281 4 4 0 0 0 -3.3964844 3.9511719 4 4 0 0 0 3.8085938 3.990234v.009766h.1914062 4.0332031a4.5 4.5 0 0 1 -.0332031-.5 4.5 4.5 0 0 1 4.5-4.5 4.5 4.5 0 0 1 3.193359 1.3320312 2.4761905 2.4761905 0 0 0 -.871093-.9140624 2.5 2.5 0 0 0 .177734-.9179688 2.5 2.5 0 0 0 -2.421875-2.4960938 5 5 0 0 0 -4.578125-3.0039062zm-2 3h1 2 1v1 1 1h-1-2v3h-1v-3-1-1zm1 1v1h2v-1z"/>
    <path d="m14.25 9.4689111a3.5 3.5 0 0 0 -4.7810889 1.2810889 3.5 3.5 0 0 0 1.2810889 4.781089 3.5 3.5 0 0 0 4.781089-1.281089 3.5 3.5 0 0 0 -1.281089-4.7810889zm-1.825135.5362259-.04089.695825-.0176.307831a1.5 1.5 0 0 0 -1.165413.741207 1.5 1.5 0 0 0 -.188735.928461l-.886609.586433a2.5 2.5 0 0 1 .209318-2.014894 2.5 2.5 0 0 1 2.089929-1.244863zm2.271625 1.311524a2.5 2.5 0 0 1 -.031426 2.433339 2.5 2.5 0 0 1 -1.639576 1.19139l.06482-1.065403a1.5 1.5 0 0 0 .70873-.625987 1.5 1.5 0 0 0 .0592-1.379879l.257789-.169159z"/>
  </g>
</svg>

<svg xmlns="http://www.w3.org/2000/svg" width="16" height="16" version="1.1">
 <defs>
  <style id="current-color-scheme" type="text/css">
   .ColorScheme-Text { color:#444444; } .ColorScheme-Highlight { color:#4285f4; }
  </style>
 </defs>
 <path style="fill:currentColor" class="ColorScheme-Text" d="M 8 2 A 5 5 0 0 0 3.3964844 5.0488281 A 4 4 0 0 0 0 9 A 4 4 0 0 0 3.8085938 12.990234 L 3.8085938 13 L 4 13 L 8.0332031 13 A 4.5 4.5 0 0 1 8 12.5 A 4.5 4.5 0 0 1 12.5 8 A 4.5 4.5 0 0 1 15.693359 9.3320312 A 2.4761905 2.4761905 0 0 0 14.822266 8.4179688 A 2.5 2.5 0 0 0 15 7.5 A 2.5 2.5 0 0 0 12.578125 5.0039062 A 5 5 0 0 0 8 2 z M 6 5 L 7 5 L 9 5 L 10 5 L 10 6 L 10 7 L 10 8 L 9 8 L 7 8 L 7 11 L 6 11 L 6 8 L 6 7 L 6 6 L 6 5 z M 7 6 L 7 7 L 9 7 L 9 6 L 7 6 z"/>
 <path style="fill:currentColor" class="ColorScheme-Text" d="M 14.25,9.4689111 A 3.5,3.5 0 0 0 9.4689111,10.75 3.5,3.5 0 0 0 10.75,15.531089 3.5,3.5 0 0 0 15.531089,14.25 3.5,3.5 0 0 0 14.25,9.4689111 Z m -1.825135,0.5362259 -0.04089,0.695825 -0.0176,0.307831 A 1.5,1.5 0 0 0 11.200962,11.75 1.5,1.5 0 0 0 11.012227,12.678461 l -0.886609,0.586433 A 2.5,2.5 0 0 1 10.334936,11.25 2.5,2.5 0 0 1 12.424865,10.005137 Z m 2.271625,1.311524 A 2.5,2.5 0 0 1 14.665064,13.75 2.5,2.5 0 0 1 13.025488,14.94139 l 0.06482,-1.065403 A 1.5,1.5 0 0 0 13.799038,13.25 a 1.5,1.5 0 0 0 0.0592,-1.379879 l 0.257789,-0.169159 z"/>
</svg>
